X:142
T:B142-  Flying from Olinda
Q:1/4=120
L:1/4
M:3/4
K:G
def|g2d|ec2|A3|ABc|d2e|(d/2c/2 A3/2)G/2|G2A|\
B2e|^cd2|d2^c|d3|fef|g2g|f^d2|e3|\
ede|c2B|cA2|F2(E/2D/2)|G2A|(B/2c/2 B/2c/2)d|cA2|.G3|]
